X:1
T:Hard Times Come Again No More
C:Stephen C. Foster
L:1/8
M:4/4
I:linebreak $
K:D
V:1 treble 
V:1
"^Moderato" DE |"D" F2 FF F A2 F |"A7" EDDE"Bm" F2"G" B>A |"D" A2 F2 FD"A7" E>E |"D" D4 z2 | DE | %6
 F2 FF F A2 F |"A7" EDDE"D" F2"G" B2 |$"D" A2 F2 FD"A7"EE |"D" D4 z2 |]"D""^Chorus" FG | %11
 A2 z A A2 ^GA |"G" B4"D" A2 z2 | d2 A2 B2 A2 |"E" FF E>D"A7" !fermata!E2 | DE |"D" F2 FF F A2 F |$ %17
"A7" EDDE"Bm" F2"G" B2 |"D" A2 F2 FD"A7"EE |"D" D4 z2 |] %20
